!!!OTL: Nach gro&szlig; Trauer kommt gro&szlig; Freud (3-77), S. 213
!!!id: P1050
**kern
*clefG2
*k[f#]
*G:
{8d
8d
=1
4g
4d
8g
8b
4a
=2
2b}
4r
=3
{8g
8b
=4
4dd
8b
8g
4a
4a
=5
2g}
4r
=6
{8b
8cc
=7
4dd
8b
8b
8b
8cc
8dd
8ee
=8
4cc
4a
4a}
=9
{8cc
8dd
=10
4b
8g
8g
8g
8a
8b
8cc
=11
8.a
8g
8f#
16e
4d}
=12
{8d
8d
=13
4.g
8a
4b
8g
8g
=14
4.a
8b
4cc}
=15
{8ee
8ee
=16
4dd
8b
8g
4dd
8dd
8cc
=17
2b}
4r
==
*-
!!!minrhy: 16
!!!meters: 4/4 ]  ZZ[6
!!!cut: Nach gro&szlig; Trauer kommt gro&szlig; Freud (3-77), S. 213
!!!reg: Lothringen
!!!trd: PINCK, Louis: Verklingende Weisen, Bd3, Metz 1933
!!!rhy1: X_X_  X__X__X_X_X__  X___0_   (x2)
!!!rhy2: X_X_  X__X_X_X__X__  X___0_
!!!key: P1050  16  G 4/4 ]  ZZ[6
!!!mod: HEPTATONIK IONISCH]  AMBITUS[9
!!!kad: 312-543
!!!akz: 113_521_5342_312-5_1324_553_
!!!fot: 'a__b__c__cs"d__e__
!!!for: 'a__b__c__d__e__f__
!!!fok: '/__^__^d_Sd_/__\__
!! PHRAS[AUFTAKTIG]
!!!fkt: Treue
!! LOTH VKL
!! PR[31] 2K[4] 2G[12] 3K[4] 3G[6] 4A[8] 4Ü[0] 5A[0] 6K[0] 6G[0]
!! 7K[0] 7G[0] 8A[0] MEHR[0] SI[35] ABS[49] SR[16] SP[18]
!! ST[21] 2k[6] 2g[20] 3k[2] 3g[0] 4d[0] 4ü[0] 5d[6] 6k[0] 6g[0]
!! 7k[0] 7g[0] 8d[0] mehr[0] si[35] dm[0] sr[27] sp[8]
!! 1F[8] 2F[10] 3F[50] 4F[19] LF[0] 2P[4] 3P[4] 4P[6] TRI[6] DF[7] AB[52]
!! TF[0] U3K[0] U3[0] U4[0] U4Ü[0] U5[4] U6K[0] U6[0] U7K[0] U7[0]
!! N1[16] N2K[0] N2[14] N3K[0] N3[32] N4[10] N4Ü[0] N5[20] N6K[0] N6[4]
!!!n7k: 0] N7[0] O1[0] O2K[0] O2[0] O3K[0] O3[0] HÖ[0
!!!RNB: symbol: &szlig; = sz ligature (UTF-8: ÃŸ)
